static/img/kroki/2f3da3290cbc1b7c3b5205fad5f61c1b.svg

<?xml version="1.0" encoding="us-ascii" standalone="no"?><svg xmlns="http://www.w3.org/2000/svg" xmlns:xlink="http://www.w3.org/1999/xlink" contentStyleType="text/css" height="252px" preserveAspectRatio="none" style="width:415px;height:252px;" version="1.1" viewBox="0 0 415 252" width="415px" zoomAndPan="magnify"><defs/><g><!--class aws_cloud_trail--><g id="elem_aws_cloud_trail"><rect codeLine="23" fill="#3D176E" height="39.7891" id="aws_cloud_trail" rx="2.5" ry="2.5" style="stroke:#000D19;stroke-width:0.5;" width="171" x="43.66" y="7"/><ellipse cx="58.66" cy="26.8945" fill="#ADD1B2" rx="11" ry="11" style="stroke:#181818;stroke-width:1.0;"/><path d="M61.6288,32.5352 Q61.0506,32.832 60.41,32.9727 Q59.7694,33.1289 59.0663,33.1289 Q56.5663,33.1289 55.2381,31.4883 Q53.9256,29.832 53.9256,26.707 Q53.9256,23.582 55.2381,21.9258 Q56.5663,20.2695 59.0663,20.2695 Q59.7694,20.2695 60.41,20.4258 Q61.0663,20.582 61.6288,20.8789 L61.6288,23.5977 Q61.0038,23.0195 60.41,22.7539 Q59.8163,22.4727 59.1913,22.4727 Q57.8475,22.4727 57.16,23.5508 Q56.4725,24.6133 56.4725,26.707 Q56.4725,28.8008 57.16,29.8789 Q57.8475,30.9414 59.1913,30.9414 Q59.8163,30.9414 60.41,30.6758 Q61.0038,30.3945 61.6288,29.8164 L61.6288,32.5352 Z " fill="#000000"/><text fill="#D9B8FF" font-family="Helvetica" font-size="17" lengthAdjust="spacing" textLength="129" x="77.66" y="32.7798">aws_cloud_trail</text></g><!--class aws_kms_key--><g id="elem_aws_kms_key"><rect codeLine="26" fill="#3D176E" height="39.7891" id="aws_kms_key" rx="2.5" ry="2.5" style="stroke:#000D19;stroke-width:0.5;" width="158" x="81.16" y="206.58"/><ellipse cx="96.16" cy="226.4745" fill="#ADD1B2" rx="11" ry="11" style="stroke:#181818;stroke-width:1.0;"/><path d="M99.1288,232.1152 Q98.5506,232.412 97.91,232.5527 Q97.2694,232.7089 96.5663,232.7089 Q94.0663,232.7089 92.7381,231.0683 Q91.4256,229.412 91.4256,226.287 Q91.4256,223.162 92.7381,221.5058 Q94.0663,219.8495 96.5663,219.8495 Q97.2694,219.8495 97.91,220.0058 Q98.5663,220.162 99.1288,220.4589 L99.1288,223.1777 Q98.5038,222.5995 97.91,222.3339 Q97.3163,222.0527 96.6913,222.0527 Q95.3475,222.0527 94.66,223.1308 Q93.9725,224.1933 93.9725,226.287 Q93.9725,228.3808 94.66,229.4589 Q95.3475,230.5214 96.6913,230.5214 Q97.3163,230.5214 97.91,230.2558 Q98.5038,229.9745 99.1288,229.3964 L99.1288,232.1152 Z " fill="#000000"/><text fill="#D9B8FF" font-family="Helvetica" font-size="17" lengthAdjust="spacing" textLength="116" x="115.16" y="232.3598">aws_kms_key</text></g><!--class aws_s3_bucket--><g id="elem_aws_s3_bucket"><rect codeLine="29" fill="#3D176E" height="39.7891" id="aws_s3_bucket" rx="2.5" ry="2.5" style="stroke:#000D19;stroke-width:0.5;" width="168" x="45.16" y="106.79"/><ellipse cx="60.16" cy="126.6845" fill="#ADD1B2" rx="11" ry="11" style="stroke:#181818;stroke-width:1.0;"/><path d="M63.1288,132.3252 Q62.5506,132.622 61.91,132.7627 Q61.2694,132.9189 60.5663,132.9189 Q58.0663,132.9189 56.7381,131.2783 Q55.4256,129.622 55.4256,126.497 Q55.4256,123.372 56.7381,121.7158 Q58.0663,120.0595 60.5663,120.0595 Q61.2694,120.0595 61.91,120.2158 Q62.5663,120.372 63.1288,120.6689 L63.1288,123.3877 Q62.5038,122.8095 61.91,122.5439 Q61.3163,122.2627 60.6913,122.2627 Q59.3475,122.2627 58.66,123.3408 Q57.9725,124.4033 57.9725,126.497 Q57.9725,128.5908 58.66,129.6689 Q59.3475,130.7314 60.6913,130.7314 Q61.3163,130.7314 61.91,130.4658 Q62.5038,130.1845 63.1288,129.6064 L63.1288,132.3252 Z " fill="#000000"/><text fill="#D9B8FF" font-family="Helvetica" font-size="17" lengthAdjust="spacing" textLength="126" x="79.16" y="132.5698">aws_s3_bucket</text></g><!--class aws_sns_topic--><g id="elem_aws_sns_topic"><rect codeLine="32" fill="#3D176E" height="39.7891" id="aws_sns_topic" rx="2.5" ry="2.5" style="stroke:#000D19;stroke-width:0.5;" width="160" x="248.16" y="106.79"/><ellipse cx="263.16" cy="126.6845" fill="#ADD1B2" rx="11" ry="11" style="stroke:#181818;stroke-width:1.0;"/><path d="M266.1287,132.3252 Q265.5506,132.622 264.91,132.7627 Q264.2694,132.9189 263.5662,132.9189 Q261.0662,132.9189 259.7381,131.2783 Q258.4256,129.622 258.4256,126.497 Q258.4256,123.372 259.7381,121.7158 Q261.0662,120.0595 263.5662,120.0595 Q264.2694,120.0595 264.91,120.2158 Q265.5662,120.372 266.1287,120.6689 L266.1287,123.3877 Q265.5037,122.8095 264.91,122.5439 Q264.3162,122.2627 263.6912,122.2627 Q262.3475,122.2627 261.66,123.3408 Q260.9725,124.4033 260.9725,126.497 Q260.9725,128.5908 261.66,129.6689 Q262.3475,130.7314 263.6912,130.7314 Q264.3162,130.7314 264.91,130.4658 Q265.5037,130.1845 266.1287,129.6064 L266.1287,132.3252 Z " fill="#000000"/><text fill="#D9B8FF" font-family="Helvetica" font-size="17" lengthAdjust="spacing" textLength="118" x="282.16" y="132.5698">aws_sns_topic</text></g><!--link aws_cloud_trail to aws_kms_key--><g id="link_aws_cloud_trail_aws_kms_key"><path codeLine="35" d="M92.27,47.11 C55.05,69.21 6,107.52 28.16,146.58 C44.04,174.56 68.7403,191.2137 96.2403,203.6137 " fill="none" id="aws_cloud_trail-to-aws_kms_key" style="stroke:#1A83AF;stroke-width:2.0;"/><polygon fill="#1A83AF" points="101.71,206.08,95.1497,198.7341,97.1519,204.0247,91.8613,206.027,101.71,206.08" style="stroke:#1A83AF;stroke-width:2.0;"/></g><!--link aws_cloud_trail to aws_s3_bucket--><g id="link_aws_cloud_trail_aws_s3_bucket"><path codeLine="36" d="M129.16,47.22 C129.16,64.36 129.16,83.27 129.16,100.41 " fill="none" id="aws_cloud_trail-to-aws_s3_bucket" style="stroke:#1A83AF;stroke-width:2.0;"/><polygon fill="#1A83AF" points="129.16,106.41,133.16,97.41,129.16,101.41,125.16,97.41,129.16,106.41" style="stroke:#1A83AF;stroke-width:2.0;"/></g><!--link aws_cloud_trail to aws_sns_topic--><g id="link_aws_cloud_trail_aws_sns_topic"><path codeLine="37" d="M168.48,47.22 C203.37,64.36 248.6856,86.6226 283.5456,103.7626 " fill="none" id="aws_cloud_trail-to-aws_sns_topic" style="stroke:#1A83AF;stroke-width:2.0;"/><polygon fill="#1A83AF" points="288.93,106.41,282.6184,98.8493,284.443,104.2038,279.0885,106.0285,288.93,106.41" style="stroke:#1A83AF;stroke-width:2.0;"/></g><!--link aws_sns_topic to aws_kms_key--><g id="link_aws_sns_topic_aws_kms_key"><path codeLine="38" d="M294.97,147.01 C265.52,164.15 227.9052,186.0412 198.4652,203.1812 " fill="none" id="aws_sns_topic-to-aws_kms_key" style="stroke:#1A83AF;stroke-width:2.0;"/><polygon fill="#1A83AF" points="193.28,206.2,203.0704,205.1286,197.601,203.6843,199.0453,198.2149,193.28,206.2" style="stroke:#1A83AF;stroke-width:2.0;"/></g><!--SRC=[ZPBDQiCm48JlVWf1pW6xfdLoARY1q5v2QNehnSZIAX6s9RDQDwIbxzwaQO8YvwS7NNO-PcONBRK41arBQzP0KmAwo5NQj1nvmt94kvhOsY8RACLLceNYr1gw2inu0-mHwWyWBNX8l2wrg0munsuywO6BQe6sCt9dJyYDsqXWoACcDNSk9q9TTWHU6JakHqg5P6WwI6MItK4FioW1_v0uZcKo3f6hKHVtFX1p_GaiyOysimIzchs8N-fYootXbUmjkjVFTdpcKcgpOBVUx6NN2GtWqNo-vDAkjhJYjVDZ7062fNKBazvMC1v9bPs4dyx1aTYUZl6LAqHjErbi_eMksLSKVNjIrMmUhCEnIuko4nLGJp2k8DjgiHD2z-7R8Cb7QJvz7zxx_jV1G-8_q7s7wBZHsV0V]--></g></svg>

<svg xmlns="http://www.w3.org/2000/svg" width="415" height="252" viewBox="0 0 415 252"><rect width="171" height="39.789" x="43.66" y="7" fill="#3D176E" rx="2.5" ry="2.5" style="stroke:#000d19;stroke-width:.5"/><circle cx="58.66" cy="26.895" r="11" fill="#ADD1B2" style="stroke:#181818;stroke-width:1"/><path d="M61.629 32.535q-.578.297-1.219.438-.64.156-1.344.156-2.5 0-3.828-1.64-1.312-1.657-1.312-4.782t1.312-4.781q1.328-1.656 3.828-1.656.703 0 1.344.156.656.156 1.219.453v2.719q-.625-.578-1.219-.844-.594-.281-1.219-.281-1.344 0-2.031 1.078-.687 1.062-.687 3.156t.687 3.172q.688 1.062 2.031 1.062.625 0 1.219-.265.594-.281 1.219-.86z"/><text x="77.66" y="32.78" fill="#D9B8FF" font-family="Helvetica" font-size="17" textLength="129">aws_cloud_trail</text><rect width="158" height="39.789" x="81.16" y="206.58" fill="#3D176E" rx="2.5" ry="2.5" style="stroke:#000d19;stroke-width:.5"/><circle cx="96.16" cy="226.475" r="11" fill="#ADD1B2" style="stroke:#181818;stroke-width:1"/><path d="M99.129 232.115q-.578.297-1.219.438-.64.156-1.344.156-2.5 0-3.828-1.64-1.312-1.657-1.312-4.782t1.312-4.781q1.328-1.656 3.828-1.656.703 0 1.344.156.656.156 1.219.453v2.719q-.625-.578-1.219-.844-.594-.281-1.219-.281-1.344 0-2.031 1.078-.687 1.062-.687 3.156t.687 3.172q.688 1.062 2.031 1.062.625 0 1.219-.265.594-.281 1.219-.86z"/><text x="115.16" y="232.36" fill="#D9B8FF" font-family="Helvetica" font-size="17" textLength="116">aws_kms_key</text><rect width="168" height="39.789" x="45.16" y="106.79" fill="#3D176E" rx="2.5" ry="2.5" style="stroke:#000d19;stroke-width:.5"/><circle cx="60.16" cy="126.684" r="11" fill="#ADD1B2" style="stroke:#181818;stroke-width:1"/><path d="M63.129 132.325q-.578.297-1.219.438-.64.156-1.344.156-2.5 0-3.828-1.64-1.312-1.657-1.312-4.782t1.312-4.781q1.328-1.656 3.828-1.656.703 0 1.344.156.656.156 1.219.453v2.719q-.625-.579-1.219-.844-.594-.281-1.219-.281-1.344 0-2.031 1.078-.687 1.062-.687 3.156t.687 3.172q.688 1.062 2.031 1.062.625 0 1.219-.265.594-.281 1.219-.86z"/><text x="79.16" y="132.57" fill="#D9B8FF" font-family="Helvetica" font-size="17" textLength="126">aws_s3_bucket</text><rect width="160" height="39.789" x="248.16" y="106.79" fill="#3D176E" rx="2.5" ry="2.5" style="stroke:#000d19;stroke-width:.5"/><circle cx="263.16" cy="126.684" r="11" fill="#ADD1B2" style="stroke:#181818;stroke-width:1"/><path d="M266.129 132.325q-.578.297-1.219.438-.64.156-1.344.156-2.5 0-3.828-1.64-1.312-1.657-1.312-4.782t1.312-4.781q1.328-1.656 3.828-1.656.703 0 1.344.156.656.156 1.219.453v2.719q-.625-.579-1.219-.844-.594-.281-1.219-.281-1.343 0-2.031 1.078-.687 1.062-.687 3.156t.687 3.172q.688 1.062 2.031 1.062.625 0 1.219-.265.594-.281 1.219-.86z"/><text x="282.16" y="132.57" fill="#D9B8FF" font-family="Helvetica" font-size="17" textLength="118">aws_sns_topic</text><path fill="none" d="M92.27 47.11C55.05 69.21 6 107.52 28.16 146.58c15.88 27.98 40.58 44.634 68.08 57.034" style="stroke:#1a83af;stroke-width:2"/><path fill="#1A83AF" d="m101.71 206.08-6.56-7.346 2.002 5.29-5.29 2.003z" style="stroke:#1a83af;stroke-width:2"/><path fill="none" d="M129.16 47.22v53.19" style="stroke:#1a83af;stroke-width:2"/><path fill="#1A83AF" d="m129.16 106.41 4-9-4 4-4-4z" style="stroke:#1a83af;stroke-width:2"/><path fill="none" d="M168.48 47.22c34.89 17.14 80.206 39.403 115.066 56.543" style="stroke:#1a83af;stroke-width:2"/><path fill="#1A83AF" d="m288.93 106.41-6.312-7.56 1.825 5.354-5.354 1.825z" style="stroke:#1a83af;stroke-width:2"/><path fill="none" d="M294.97 147.01c-29.45 17.14-67.065 39.031-96.505 56.171" style="stroke:#1a83af;stroke-width:2"/><path fill="#1A83AF" d="m193.28 206.2 9.79-1.071-5.469-1.445 1.444-5.47z" style="stroke:#1a83af;stroke-width:2"/></svg>
